X: 4365
T: HARK! YONDER JOYFUL CRIES. (Lucia di Lammermoor.)
%R: air, march
B: James Kerr "Merry Melodies" v.4 p.39 #365
Z: 2016 John Chambers <jc:trillian.mit.edu>
M: 2/4
L: 1/16
K: D
(Ad) |\
f2ff f2ge | b2aa d'4- | d'2ee a4- | a2dd f2AA |\
f2ff f2ge | b2aa d'4- | d'2ef ^gabc' | a6 :|\
|: (^ga) |\
b2bb b2bb | (bagf) e2fg | a2aa a2aa |
(agfe) d2de |\
f2ff f2de | f2de f2de | f2(de) fdef | [g6A6] (Ad) |\
f2ff f2ge | b2aa d'4- | d'2ee a4- | a2dd f2AA |\
f2ff f2ge | b2aa d'2ff | a2AA g2cc | d6 :|

%%sep 1 1 500
%%sep 1 1 500

